src/svg/symbols/icon_info.svg

<?xml version="1.0" encoding="utf-8"?>
<!-- Generator: Adobe Illustrator 18.1.1, SVG Export Plug-In . SVG Version: 6.00 Build 0)  -->
<svg version="1.1" id="Layer_1" xmlns:sketch="http://www.bohemiancoding.com/sketch/ns"
	 xmlns="http://www.w3.org/2000/svg" xmlns:xlink="http://www.w3.org/1999/xlink" x="0px" y="0px" width="100px" height="100px"
	 viewBox="0 0 100 100" enable-background="new 0 0 100 100" xml:space="preserve">
<title>info</title>
<desc>Created with Sketch.</desc>
<g id="Page-1" sketch:type="MSPage">
	<g id="_x31_00" sketch:type="MSArtboardGroup">
		<g id="info" transform="translate(3.000000, 3.000000)" sketch:type="MSLayerGroup">
			<g id="Oval">
				<path fill="#57B1CA" d="M47,96.9C19.5,96.9-2.9,74.5-2.9,47C-2.9,19.5,19.5-2.9,47-2.9c27.5,0,49.9,22.4,49.9,49.9
					C96.9,74.5,74.5,96.9,47,96.9z M47,3.9C23.3,3.9,3.9,23.3,3.9,47c0,23.7,19.3,43.1,43.1,43.1c23.7,0,43.1-19.3,43.1-43.1
					C90.1,23.3,70.7,3.9,47,3.9z"/>
			</g>
			<path id="Shape" sketch:type="MSShapeGroup" fill="#57B1CA" d="M40.6,50.4c0-9.9,12.1-11,12.1-16.7c0-2.6-1.9-4.7-6.5-4.7
				c-4.1,0-7.6,2.1-10.2,5.1l-6.7-7.5c4.4-5.1,11-8,18.1-8c10.7,0,17.2,5.4,17.2,13.1c0,12.1-13.8,13-13.8,20c0,1.3,0.7,2.7,1.5,3.5
				l-9,2.6C41.6,55.8,40.6,53.3,40.6,50.4L40.6,50.4z M40.6,68.8c0-3.6,3.1-6.7,6.7-6.7c3.6,0,6.7,3.1,6.7,6.7
				c0,3.6-3.1,6.7-6.7,6.7C43.6,75.5,40.6,72.4,40.6,68.8L40.6,68.8z"/>
		</g>
	</g>
</g>
</svg>

<?xml version="1.0" encoding="UTF-8" standalone="no"?>
<svg width="100px" height="100px" viewBox="0 0 100 100" version="1.1" xmlns="http://www.w3.org/2000/svg" xmlns:xlink="http://www.w3.org/1999/xlink" xmlns:sketch="http://www.bohemiancoding.com/sketch/ns">
    <!-- Generator: Sketch 3.3.1 (12005) - http://www.bohemiancoding.com/sketch -->
    <title>info</title>
    <desc>Created with Sketch.</desc>
    <defs></defs>
    <g id="Page-1" stroke="none" stroke-width="1" fill="none" fill-rule="evenodd" sketch:type="MSPage">
        <g id="100" sketch:type="MSArtboardGroup">
            <g id="info" sketch:type="MSLayerGroup" transform="translate(3.000000, 3.000000)">
                <circle id="Oval" stroke="#57B1CA" stroke-width="6.8889" sketch:type="MSShapeGroup" cx="47" cy="47" r="46.5"></circle>
                <path d="M40.6,50.4 C40.6,40.5 52.7,39.4 52.7,33.7 C52.7,31.1 50.8,29 46.2,29 C42.1,29 38.6,31.1 36,34.1 L29.3,26.6 C33.7,21.5 40.3,18.6 47.4,18.6 C58.1,18.6 64.6,24 64.6,31.7 C64.6,43.8 50.8,44.7 50.8,51.7 C50.8,53 51.5,54.4 52.3,55.2 L43.3,57.8 C41.6,55.8 40.6,53.3 40.6,50.4 L40.6,50.4 Z M40.6,68.8 C40.6,65.2 43.7,62.1 47.3,62.1 C50.9,62.1 54,65.2 54,68.8 C54,72.4 50.9,75.5 47.3,75.5 C43.6,75.5 40.6,72.4 40.6,68.8 L40.6,68.8 Z" id="Shape" fill="#57B1CA" sketch:type="MSShapeGroup"></path>
            </g>
        </g>
    </g>
</svg>
